X:379
T: Thomaus a Moumpus
N: O'Farrell's Pocket Companion v.4 (Sky ed. p.163)
N: "Irish"
% Another 'nonsense' title discussed in "Irish Folk Music" (p.203).
% Parts 1 and 2 both "crooked" - 9 measures each.
M: 6/8
L: 1/8
Q: 320
R: jig
K: Dm
Add d2c| ded gg/f/e| fdd cAA/G/| FDF GGF/E/|
FDA c3| AFA f3| eag fed| cAG Adc | d6 :|
P:2
Adc def| AAG/F/ GGF/E/| c3 cAA| cAA cAA|
Adc d3| DFD DED| DFD EFG| ABA/G/ FDD| EDE D3 :|
P:3
Ddd Ddd| cBA GEc| Ddd efd| Ade f2e|
ded cBA| GcG E2G| FDA FDA| FGE D3 :|
